!! 00000] TT[WS
!!!OTL: Suku fanshen
!!!ARE: Asia, China, Shanxi Zuoquan
!! Ethnic Group: Han
!! WII, 261
!!!SCT: J0790
!!!YEM: Copyright 1995, estate of Helmut Schaffrath.
**kern
*ICvox
*Ivox
*M2/4
*k[b-]
*F:
{4cc
8a
8cc
=1
8dd
8ff
8cc
8a
=2
2g
=3
4cc
8a
8b-
=4
8a
8g
[4f
=5
4f]}
{4g
=6
4cc
8b-
8a
=7
4g
8c
8d
=8
2f
=9
4e
8d
8f
=10
8g
8d
[4c
=11
4c]
4r}
==
!!!AGN: Xiaodiao. Suku, Xinminge
!!!ONB: ESAC (Essen Associative Code) Database: CHINA
!!!AMT: simple duple
!!!AIN: vox
!!!EED: Helmut Schaffrath
!!!EEV: 1.0
*-
!!!ONB: Tied note syntax fixed by Craig Sapp, 2004/05/03/
